X: 2110
T: GARTHLAND'S
C: J. Mc DONALD.
Q: "Strathspey."
R: Strathspey.
%R: strathspey
N: This is version 1, for ABC software that doesn't understand voice overlays.
B: James Kerr "Merry Melodies" v.2 p.14 #110
Z: 2016 John Chambers <jc:trillian.mit.edu>
M: C
L: 1/16
K: G
uD2 |\
vG4 uB3uG (Bd3) g4 | G4 (cB)AG FA3A3uB |\
vG4 uB3uG (Bd3) g4 | vc3uA cBAG DG3 G2 ::\
(udc) |\
Bd3d3ug (ba)gf ug3ud |
B3Gd3G FA3 [1 A2(dc) |\
Bd3d3g (ba)gf g4 | vc3vAud3uc BG3G2 :|[2 A2g2 |\
d3Bc3A B3GA3G | F3Dd3c BG3 G2 :]

%%sep 1 1 500
%%sep 1 1 500

